X: 11817
T: Ellie Goes West
R: hornpipe
M: 4/4
K: Dmajor
"D" DG/A/ de g>f d2|"G" GF dE/F/"A" EAcd|"D" DG/A/ de g>f d2|"G" G>F dE/F/"A" E3 G/F/|
"D" DAde gf a2|"G" GG/A/ dE/F/"A" EAcd-|"Bm" dBAD"A" EA FF/D/|"G" GF/A/ BF/(E/"A" E3) E/D/|
"D" DA d>e g>f (dd/4)e/4f/4g/4|"G" a>g g>f"A" e>d f2|"D" DG/A/ d>e gf d2|
"G" GG/A/ d>(e"A" e4)|"D" DG/A/ de/d/ g>f a2|"G" GA dE/F/"A" EAcd|"Bm" B2 AD"A" EE/A/ F>D|
"G" GA cd/(e/"A" e4)|"G" z Bg(f"D" f>)a ed|"A" z G/A/ g(f"Bm" f>)e e>d|"G" GA/B/ gf"D" ad e>a|
"A" e>f ac"Bm" cB g/a/(g|"G" g)Gg(f"D" f>)e e>f|"A" z G/A/ g((f"Bm" (f))f/4)e/4d/4B/4 ed|
"G" GA/B/ gf"D" ad e>f|"A" a>g g>f e4|[M:3/4]"Bm" de/f/ fc c2|"G" Bd dG G>F|"Bm" df fc c2|
"G" B(d d/)e(f/ f2)|"Em" A/B/B gf/e/ e/d/d|"D" de/f/ ff/g/4a/4 g2|"G" A/B/B gf e/d/d|
"G" E/F/d"A" E/F/c (A2|"A""_Repeat 3/4 section last time" A6)||

